X:1
T:Padghin O'Rafferty
M:6/8
L:1/8
R:Jig
K:Dmix
|:Bdd dBd|egg gfe|dBB BAG|ABA GED|
Bdd dBd|egg gfe|dBB BAG|ABA GED||
|:DBA A2B|DBA AGE|GBA ABA|G3 GED|
DBA A2B|DBA AGE|GBA ABA|G3 GED||
